X:1
T:Rigadoon. SenH.115, A
T:Rigadoon. SenH.115, A
T:in Hand C
C:in Hand C
L:1/8
Q:3/8=100
M:6/8
K:C
V:1 treble 
V:1
 G | c>dc c2 c | g>ag gab | c'>bc' ad'c' | b3- b2 || g | g>ag a2 (g/f/) | f>gf g2 (f/e/) | %8
 e>fe f2 (e/d/) | e>dc c'ba | gfe d2 c | c3- c2 |] %12

